X:235
T: Adje, jetzt muá ich fort (3-38), S. 117
N: P1010
O: Lothringen
S: PINCK, Louis: Verklingende Weisen, Bd3, Metz 1933]
R: Abschiedslied]
M: 2/4
L: 1/16
K: G
D3G | G4A4_B2d2c2_e2 | d8z4
d4 | _e4d4c2d2c2A2 | _B8z4
B4 | d4_B2c2 | d4d4c2_B2A2
c2 | c6d2A2_B2c2A2 | _B2G2A4G4
d2c2 | d4_B2A2 | G8z4

